X: 4
T:Jockey has Gotten A Wife (2)
M:9/8
L:1/8
S:Neals' A Choice Collection of Country Dances, 1726
B:SOITD
Z:ps (Peter Stewart pete:wintonstables.fsnet.co.uk) tradtunes 2003-9-5
K:GDOR
A|B>AG GD^F G2A|B>AG B>cd cA^F|B>AG GD^F G2G|FGFf2d cAF||/
g2g gdg g2a|bag gab ag^f|bag ag^f g2G|BcB f2d cAF||
